X:397
T: Beifaqu
N: C1899
O: China,Guangdong Guangzhou
S: II, 375]
R: Xiaodiao, Yueou]
M: 2/4
L: 1/16
K: G
d4B4- | B4G4- | G2A2B4 |
A2BdBAF2 | E3AF2E2 | D3BA2F2 | E2D2E2G2 | A2d2B4 | A2G6 |
E2D2E2G2 | B4G4 | F4E4 | B2A2B2d2 | A2B2A2F2 | E2D2F2E2 | D8 |
E3AF2E2 | D3BA2F2 | E2D2E2G2 | A2d2B2A2 | G6
F2 | E4B4 | e2d2e2g2 | d2e2c2B2 | A3BABcd | B6z2 |
E2D2E2G2 | B6d2 | B2d2B2A2 | G4G2A2 | A4A2F2 | E2D2F2E2 | D8 |
A2BdBAF2 | E6F2 | E2G2A2B2 | G6z2 |
B6Bd | A2B2G2A2 | B6d2 | B2d2B2A2 | F2E2F2B2 | E2D2F2E2 | D6z2 |
G2A2B4 | G3BA2F2 | E2D2G4 | e2d2e2g2 | d2e2c2B2 | A3BABcd | B6z2 |
B2G2G2B2 | A2BdG2A2 | B4A3F | E2B2D2E2 | G3BF2E2 | D6z2 |
G3BB2B2 | A2B2F2E2 | D2E2F2B2 | E2G2A2B2 | G8 |
E2D2E2G2 | B2d2B2A2 | F2E2F2B2 | E2D2F2E2 | D8 |
E4B4 | A3BABcd | B8 |
B2d2B2F2 | E2D2E2B2 | D2B,2D4 | E2G2A2B2 | G8 |
B4G4 | D2B,2D4 | B2d2BAF2 | E2G2A2B2 | G8 |
B4E4 | G2A2B2d2 | A2B2A2F2 | E2D2G4 | E2D2F2E2 | D8

@@@ Tune index: 6952
